X:1
T:Otter's Holt, The
T:Poll an Madra Uisce
C:Martin &quot;Junior&quot; Crehan
R:reel
D:Matt Molloy 1.
D:Music at Matt Molloy's.
Z:id:hn-reel-142
M:4/4
L:1/8
K:Bm
fBBA FEFB|A2FB ABde|fBBA FEFB|ABBA ~B3e|
fBBA FEFB|A2FB ABde|faaf effe|1 dBAF ~B3e:|2 dBAF ~B3c|]
d2fd Adfa|bfaf effe|d2fd Adfa|bfaf ~e3f|
~d2fd Adfa|bfaf efde|fBBA FEFB|ABBA ~B3c|
dAdf a2fa|bfaf effe|dAdf adfa|bfaf ~e3f|
d2 (3fed adfa|bfaf efde|fBBA FEFB|ABBA ~B3e|]
</abc>
